X:1
T:Standin In The Need of Prayer
T:Peter, Go Ring dem Bells
T:Copyright 1918 by Homer A. Rodeheaver
T:Rodeheaver's Plantation Melodies
T:Rodeheaver's Plantation Melodies
T:Rodeheaver's Plantation Melodies
Z:Rodeheaver's Plantation Melodies
%%score [ 1 2 3 4 ]
L:1/8
Q:1/4=80
M:2/4
K:F
V:1 treble nm="Soprano" snm="S."
V:2 treble nm="Alto" snm="A."
V:3 bass nm="Tenor" snm="T."
V:4 bass nm="Bass" snm="B."
V:1
 C | F A2 A | !wedge!G!wedge!F !wedge!D2 | F G2 A/G/ | !wedge!F!wedge!D !wedge!C2 | F A2 [Ac] | %6
w: ||||||
 !wedge![Ac]!wedge![Bd] !wedge!F>!wedge!G | !wedge!A!wedge!A !wedge!G/!wedge!G!wedge!G/ | %8
w: ||
 !wedge!F3 |"^After D.C. go to CHORUS" C | F/G/ A2 A/-A/ | A/G/F D>F | F/G/ G2 (A/G/) | F/F/D C>C | %14
w: |I|won- der where my- *|moth- er is gone.- *|||
 F/G/ A2 c/-c/ | c/c/d F>G | AA G/GG/ | F3!D.C.! |"^CHORUS" C | FF A/cA/ | c3 C | FF A/cc/ | d3 | %23
w: |||||||||
 c | f2 c(A/B/) | cd F>G | AA G/GG/ | F3!fine! :| %28
w: |||||
V:2
 C | C F2 F | FD D2 | C E2 F/E/ | !wedge!F!wedge!D !wedge!C2 | F F2 F | FF F>F | FF E/EC/ | C3 | %9
w: Oh|Pe- ter, go|ring dem bells,|Pe- ter, go- *|ring dem bells,|Pe- ter, go|ring dem bells, I|heard from heav- en to-|day.|
w: |||||||||
 z | z4 | z2 z z/ D/ | D/D/ E2 E/-E/ | F/F/D C>C | C/C/ F2 F/-F/ | F/F/F F>F | FF E/EC/ | C3 | C | %19
w: ||I|won- der where my- *|moth- er is gone I|won- der where my- *|moth- er is gone, I|heard from heav- en to-|day.|I|
w: ||||||* * * gone *||||
 CC F/AF/ | A3 C | CC F/AF/ | F3 | F | A2 FF/-F/ | FF F>F | FF E/EE/ | C3 :| %28
w: heard from heav- en to-|day, I|heard from heav- en to-|day.|I|thank God, and I|thank you too, I|heard from heav- en to-|day.|
w: |||||||||
V:3
 A, | A, C2 C | DB, F,2 | A, C2 C/B,/ | [F,A,][F,B,] [F,A,]2 | [F,A,] [F,C]2 [F,A,] | %6
 !wedge![F,A,]!wedge![F,B,] !wedge![F,C]>!wedge![F,D] | %7
 !wedge!C!wedge!C !wedge!B,/!wedge!B,!wedge!B,/ | !wedge![F,A,]3 | z | z4 | z2 z z/ F,/ | %12
 F,/F,/ C2 (C/B,/) | [F,A,]/[F,A,]/[F,B,] [F,A,]>[F,A,] | [F,A,]/[F,B,]/ [F,C]2 ([F,A,-]/[F,A,]/) | %15
 [F,A,]/[F,A,]/[F,B,] C>D | CC B,/B,B,/ | [F,A,]3 | A, | A,A, C/CC/ | C3 A, | A,A, C/CA,/ | B,3 | %23
 A, | C2 A,(C/G,/) | A,B, C>D | CC B,/B,B,/ | [F,A,]3 :| %28
V:4
 F, | F, F,2 F, | B,,B,, B,,2 | C, C,2 C, | F,,B,, F,,2 | F,, F,,2 F,, | F,,F,, A,,>B,, | %7
 C,C, C,/C,C,/ | F,,3 | z | z4 | z2 z z/ B,,/ | B,,/B,,/ C,2 C,/-C,/ | F,,/F,,/F,, F,,>F,, | %14
 F,,/F,,/ F,,2 F,,/-F,,/ | F,,/F,,/F,, A,,>B,, | C,C, C,/C,C,/ | F,,3 | F, | F,F, F,/F,F,/ | %20
 F,3 F, | F,F, F,/F,F,/ | B,,3 | F, | F,2 F,F,/-F,/ | F,F, A,>B, | CC C,/C,C,/ | F,,3 :| %28

